X:1
T:Title
%%score { ( 1 3 ) | ( 2 4 ) }
L:1/8
Q:1/4=100
M:4/4
K:Eb
V:1 treble nm="Grand Piano"
V:3 treble 
V:2 bass 
V:4 bass 
V:1
 [Ge]2 [Ac]>[Ac] [GB]2 [B,EG]2 | [B,DF]2 [G,E]>[B,DF] [B,EG]4 | [Ge]2 [Ac]>[Ac] [GB]2 G2 | %3
w: J.~M.~Black * * * *|||
 F2 G>F [DF]4 | [DF]2 [FA]>[FA] [FA]2 [DF]2 | [EG]2 [EG]>[FA] [GB]2 [EG]2 | %6
w: |||
 [Ec]2 [Ec]>[Ed] [Ee]2 [Ec]2 |[M:9/8] z3 z [DA]2- [DA]3 |[M:4/4] e2 [Ac]>[Ac] [GB]2 [B,EG]2 | %9
w: |||
 [B,DF]2 [G,E]>[B,DF] [B,EG]4 | %10
w: |
 [Ge]2 [Ac]>[Ac] [GB]2 .[EG]2[Q:1/4=99][Q:1/4=97][Q:1/4=96][Q:1/4=94][Q:1/4=93][Q:1/4=91][Q:1/4=90][Q:1/4=88][Q:1/4=87][Q:1/4=85][Q:1/4=84][Q:1/4=82][Q:1/4=81][Q:1/4=79][Q:1/4=78][Q:1/4=76] | %11
w: |
 [DF]4 E2 z2 |] %12
w: |
V:2
 [E,B,]2 [E,E]>[E,E] [E,E]2 E,2 | B,,2 C,>B,, E,4 | [E,B,]2 [E,E]>[E,E] [E,E]2 [E,B,E]2 | %3
 [F,=A,E]2 [F,A,E]>[F,A,E] [B,,B,]4 | [B,,B,]2 [B,,B,]>[B,,B,] [B,,B,]2 [B,,B,]2 | %5
 [E,B,]2 [E,B,]>[E,B,] [E,E]2 [E,B,]2 | [A,,A,]2 [A,,A,]>[A,,B,] [A,,C]2 [A,,A,]2 | %7
[M:9/8] [E,G,]2 [E,B,]- [E,B,] B,2 z3 |[M:4/4] [E,G,E]2 [E,E]>[E,E] [E,E]2 E,2 | B,,2 C,>B,, E,4 | %10
 [E,B,]2 [E,E]>[E,E] [E,E]2 .[E,B,]2 | [B,,A,]4 [E,G,]2 z2 |] %12
V:3
 x8 | x8 | x8 | x8 | x8 | x8 | x8 |[M:9/8] [EB]2 [EG]- [EG] z z F,3 |[M:4/4] x8 | x8 | x8 | x8 |] %12
V:4
 x8 | x8 | x8 | x8 | x8 | x8 | x8 |[M:9/8] z3 z B,,2- B,,3 |[M:4/4] x8 | x8 | x8 | x8 |] %12

